X:1
T:James Gibb editions
T:L'ultimo dì de maggio - Festa
T:#
%%score [ 1 2 3 4 ]
L:1/8
Q:1/4=120
M:2/2
K:F
V:1 treble nm="Soprano"
V:2 treble nm="Alto"
V:3 treble-8 nm="Tenor"
V:4 bass nm="Bass"
V:1
"^L'ultimo dì de maggio""^Sebastian Festa\n(1490?-1524)" z8 | z4 z2 A2 | B2 A2 (G2 F2- | %3
w: |Un|bel mat- ti\- *|
 F2 E2) F4 | A2 A2 B2 c2 | (B2 c2) (A2 c2- |[M:2/2] c2 =B2) c4 | A2 A2 B2 BB | (A2 G2) G2 F2 | %9
w: * * no|per la fre- sca|ro\- * sa\- *|* * ta,|Se n'an- da- va la|bel\- * la~~al- lo|
 (F2 E2) F4 | F4 G2 G2 | A2 A2 F2 FF | B2 B2 G4- | G4 F4 | z8 | z8 | A4 A2 A2 | (B3 A G2) F2 | %18
w: giar\- * di-|no, Da vin-|ti da- mi- gel- le~~ac-|com- pa- gna\-|* ta;|||Gen- til, ac-|cor\- * * ta~~e|
 (E2 F4 E2) | F8 | F3 F F2 F2 | F2 F2 G4 | G2 F2 E2 (F2- | F2 E2) F4 | A4 G2 A2 | B2 B2 G2 G2 | %26
w: bel\- * *|la.|Tan- da- ri- don-|del- la, tan-|da- ri- don- del\-|* * la.|Oi- mè, che|l'è pur quel- la|
 A4 A2 c2 | (B2 c4) =B2 | c2 A2 B2 A2 | G8 | F4 z2 A2 | B2 B2 A2 A2 | F6 (ED) | E2 F2 F4 | F8- | %35
w: Che m'ha li-|ga\- * to~~il|cor, Che me l'ha|tol-|to Con|la bel- tà del|suo splen\- *|den- te vol-|to.|
 F8 |[Q:1/4=117] F8 |[Q:1/4=112] F8 |[Q:1/4=108] F8 |[Q:1/4=104] !fermata!F8 |] %40
w: |||||
V:2
 z8 | z4 z2 F2 | F2 F2 (EDCB, | C4) A,4 | C2 C2 (G2 EF) | G4 C4 |[M:2/2] G4 E4 | F2 F2 F3 F | %8
w: |Un|bel mat- ti\- * * *|* no|per la fre\- * *|sca ro-|sa- ta,|Se n'an- da- va|
 F2 D2 _E2 C2 | C4 C4 | C3 D E2 E2 | F2 F,2 A,3 A, | B,2 B,2 C4- | C4 C4 | z8 | z8 | F4 F2 F2 | %17
w: la bel- la~~al- lo|giar- di-|no, Da vin- ti|da- mi- gel- le~~ac-|com- pa- gna\-|* ta;|||Gen- til, ac-|
 (F4 _E2) (C2- | C2 B,2) C4 | C8 | C3 C D2 D2 | C2 D2 _E4 | _E2 C2 (C2 B,2) | C4 C4 | F4 E2 C2 | %25
w: cor\- * ta~~e|* * bel-|la.|Tan- da- ri- don-|del- la, tan-|da- ri- don\- *|del- la.|Oi- mè, che|
 D2 D2 E2 E2 | C4 C2 (G2- | G2 F2) G2 G2 | E2 F2 F2 C2 | C8 | C4 z2 F2 | D2 E2 F2 F2 | C2 D2 C4 | %33
w: l'è pur quel- la|Che m'ha li\-|* * ga- to~~il|cor, Che me l'ha|tol-|to Con|la bel- tà del|suo splen- den-|
 C4 A,4 | A,4 A,4- | A,2 (B,2 C2) C2 | D2 (B,4 A,G, | A,2) B,2 B,2 A,2 | (B,4 D4) | !fermata!C8 |] %40
w: te vol-|to, Con|* la~bel\- * tà|del suo * *|* splen- den- te|vol\- *|to.|
V:3
 F2 FF G2 B2 | (A3 G) F2 c2 | d2 c2 (c2 BA | G4) F4 | f2 f2 d2 c2 | (d2 e2) (f3 e | %6
w: L'ul- ti- mo dì de|mag\- * gio, Un|bel mat- ti\- * *|* no|per la fre- sca|ro\- * sa\- *|
[M:2/2][K:treble-8] d4 c4 | c2 c2 d3 d | c2 B2 B2 A2 | G4 F4 | A4 c2 c2 | c2 c2 d3 d | %12
w: * ta,|Se n'an- da- va|la bel- la~~al- lo|giar- di-|no, Da vin-|ti da- mi- gel-|
 d2 d2 e2 f2- | f2 e2) f4 | (d3 c) B2 A2 | B2 c2 A2 A2 | c4 c4 | (d3 c) B2 A2 | (G2 F2 G4) | F8 | %20
w: le~~ac- com- pa- gna\-|* * ta;|O\- * gni~~u- na~~in-|na- mo- ra- ta,|Gen- til,|ac\- * cor- ta~~e|bel\- * *|la.|
 A3 A B2 B2 | A2 A2 B4 | B2 A2 (G2 F2) | G4 F4 | z8 | z8 | f4 f2 e2 | d2 c2 d4 | c4 d2 (f2- | %29
w: Tan- da- ri- don-|del- la, tan-|da- ri- don\- *|del- la.|||Che m'ha li-|ga- to~~il cor,|Che me l'ha|
 f2 ed) e4 | f4 z2 c2 | B2 B2 c2 c2 | A2 B2 G4 | G4 F4 | F4 z2 c2- | c2 B4 A2 | B4 d4 | %37
w: * * * tol-|to Con|la bel- tà del|suo splen- den-|te vol-|to, Con|* la bel-|tà del|
 c2 B2 c2 c2 | (B6 AG) | !fermata!A8 |] %40
w: suo splen- den- te|vol\- * *|to.|
V:4
 z8 | z4 z2 F,2 | B,,2 F,2 C,4- | C,4 F,4 | F,2 F,2 G,2 A,2 | (G,2 C,2 F,4) |[M:2/2] G,4 A,4 | %7
w: |Un|bel mat- ti\-|* no|per la fre- sca|ro\- * *|sa- ta,|
 F,2 F,2 B,,2 B,,B,, | (F,2 G,2) _E,2 F,2 | C,4 F,4 | F,4 C,2 C,2 | F,2 F,2 D,2 D,D, | %12
w: Se n'an- da- va la|bel\- * la~~al- lo|giar- di-|no, Da vin-|ti da- mi- gel- le~~ac-|
 G,2 G,2 C,4- | C,4 F,4 | (B,3 A,) G,2 F,2 | G,2 A,2 F,2 F,2 | F,4 F,2 F,2 | B,,4 (_E,2 F,2) | %18
w: com- pa- gna\-|* ta;|O\- * gni~~u- na~~in-|na- mo- ra- ta,|Gen- til, ac-|cor- ta~~e *|
 (C,2 D,2 C,4) | F,,8 | F,3 F, B,,2 B,,2 | F,2 F,2 _E,4 | _E,2 F,2 (C,2 D,2) | C,4 F,4 | z8 | z8 | %26
w: bel\- * *|la.|Tan- da- ri- don-|del- la, tan-|da- ri- don\- *|del- la.|||
 F,4 F,2 C,2 | G,2 A,2 G,4 | C,2 F,2 (B,,2 F,2) | C,8 | F,4 z2 F,2 | G,2 G,2 F,2 F,2 | %32
w: Che m'ha li-|ga- to~~il cor,|Che me l'ha *|tol-|to Con|la bel- tà del|
 F,2 B,,2 C,4 | C,4 F,,4 | F,,4 D,4 | F,4 F,4 | B,,4 B,,4 | F,2 F,2 F,2 F,2 | B,,8 | %39
w: suo splen- den-|te vol-|to, Con|la bel-|tà del|suo splen- den- te|vol-|
 !fermata!F,8 |] %40
w: to.|

